!!!OTL: "Festgesang" WO WIR IN DEM FESTGEWAND IMMER AUCH UNS FINDEN
!!!ARE: Europa, Mitteleuropa, Deutschland
!!!SCT: Z1130
!!!YEM: Copyright 1995, estate of Helmut Schaffrath.
**kern
*ICvox
*Ivox
*M3/4
*k[]
*C:
{8.c
16G
4G
4c
=1
8.A
16A
4A
4r}
=2
{8.B
16c
4d
4G
=3
8c
8e
4c
4r}
=4
{8.c
16G
4G
4c
=5
8.A
16A
4A
4r}
=6
{8.B
16c
4d
4G
=7
8c
8e
4c
4r}
=8
{8.B
16c
4d
4g
=9
8e
8c
2d}
=10
{8.B
16c
4d
4g
=11
8e
8c
2d}
=12
{8c
8B
4A
8f
8d
=13
4e
4d
4c}
=14
{8c
8B
4A
8f
8d
=15
4e
4d
4c}
==
!!!AGN: Vaterland und Wehr
!!!ONB: ESAC (Essen Associative Code) Database: ZUCCAL
!!!AMT: simple triple
!!!AIN: vox
!!!EED: Helmut Schaffrath
!!!EEV: 1.0
*-
